X:1
T: American Air #2
C:
R:Reel
I:speed 100
Q:232
K:C
M:4/4
L:1/8
A2|d3A B2A2|F2A2 A2z2|d3A B2A2|F2D2 D2A2|
d3A B2A2|F2A2 A2z2|d3A B2A2|F2D2 D2A2|
de fd e3d|B2d2 d2z2|defd e3d|B2A2 A2A2|
de fd e3d|B2d2 d2((3ABc)|d3A B3A|F2A2 A2de|
f2f2 e2d2|B2d2 d2de|f2fa gfed|f2a2 a2de|
f2f2 e2d2|B2d2 d2((3ABc)|d3A B3A|F2D2 D2||
